app/public/icons/iconSair.svg

<svg width="36" height="33" viewBox="0 0 36 33" fill="none" xmlns="http://www.w3.org/2000/svg">
<path d="M26.5711 5.38214L35.2055 14.2681C35.7117 14.7891 36 15.5054 36 16.2435C36 16.9816 35.7117 17.698 35.2055 18.219L26.5711 27.1049C26.1211 27.568 25.5164 27.8213 24.8836 27.8213C23.5687 27.8213 22.5 26.7214 22.5 25.3682V20.8746H13.5C12.2555 20.8746 11.25 19.8398 11.25 18.5591V13.928C11.25 12.6472 12.2555 11.6124 13.5 11.6124H22.5V7.1188C22.5 5.76565 23.5687 4.66577 24.8836 4.66577C25.5164 4.66577 26.1211 4.92626 26.5711 5.38214ZM11.25 4.66577H6.75C5.50547 4.66577 4.5 5.70053 4.5 6.98131V25.5057C4.5 26.7865 5.50547 27.8213 6.75 27.8213H11.25C12.4945 27.8213 13.5 28.856 13.5 30.1368C13.5 31.4176 12.4945 32.4524 11.25 32.4524H6.75C3.02344 32.4524 0 29.3408 0 25.5057V6.98131C0 3.14619 3.02344 0.034668 6.75 0.034668H11.25C12.4945 0.034668 13.5 1.06943 13.5 2.35022C13.5 3.631 12.4945 4.66577 11.25 4.66577Z" fill="#1351B4"/>
</svg>

<svg xmlns="http://www.w3.org/2000/svg" width="36" height="33" fill="none"><path fill="#1351B4" d="m26.571 5.382 8.635 8.886c.506.521.794 1.237.794 1.976s-.288 1.454-.794 1.975l-8.635 8.886a2.34 2.34 0 0 1-1.687.716c-1.315 0-2.384-1.1-2.384-2.453v-4.493h-9c-1.245 0-2.25-1.035-2.25-2.316v-4.631c0-1.28 1.005-2.316 2.25-2.316h9V7.12c0-1.353 1.069-2.453 2.384-2.453.632 0 1.237.26 1.687.716M11.25 4.666h-4.5C5.505 4.666 4.5 5.7 4.5 6.98v18.525c0 1.28 1.005 2.315 2.25 2.315h4.5c1.245 0 2.25 1.035 2.25 2.316s-1.005 2.315-2.25 2.315h-4.5C3.023 32.451 0 29.34 0 25.505V6.98C0 3.146 3.023.035 6.75.035h4.5c1.245 0 2.25 1.034 2.25 2.315s-1.005 2.316-2.25 2.316"/></svg>
